site/components/footer/SVG/slack.svg

<?xml version="1.0" encoding="UTF-8" standalone="no"?>
<svg width="20px" height="20px" viewBox="0 0 20 20" version="1.1" xmlns="http://www.w3.org/2000/svg" xmlns:xlink="http://www.w3.org/1999/xlink">
    <!-- Generator: sketchtool 39.1 (31720) - http://www.bohemiancoding.com/sketch -->
    <title>46E4AF79-3BE9-4B09-BDDF-E81B43D58B15</title>
    <desc>Created with sketchtool.</desc>
    <defs>
        <polygon id="path-1" points="3.27316684e-05 19.9904762 19.8491736 19.9904762 19.8491736 0.150826382 3.27316684e-05 0.150826382"></polygon>
    </defs>
    <g id="Symbols" stroke="none" stroke-width="1" fill="none" fill-rule="evenodd">
        <g id="Footer" transform="translate(-444.000000, -163.000000)">
            <g id="Slack" transform="translate(444.000000, 163.000000)">
                <g>
                    <mask id="mask-2" fill="white">
                        <use xlink:href="#path-1"></use>
                    </mask>
                    <g id="Clip-10"></g>
                    <polyline id="Fill-9" fill="#FFFFFF" mask="url(#mask-2)" points="8.17095238 9.2431746 9.02603175 11.795873 11.6780952 10.907619 10.8231746 8.35492063 8.17095238 9.2431746"></polyline>
                    <path d="M15.5687302,11.7747619 L14.2826984,12.2053968 L14.7284127,13.5360317 C14.9088889,14.0749206 14.6184127,14.6580952 14.0795238,14.8384127 C13.962381,14.8777778 13.8430159,14.8947619 13.7263492,14.8915873 C13.3060317,14.8807937 12.9184127,14.6112698 12.7773016,14.1896825 L12.3315873,12.8588889 L9.67952381,13.7469841 L10.1252381,15.0777778 C10.3057143,15.6165079 10.0152381,16.1996825 9.47634921,16.3801587 C9.35920635,16.4193651 9.24,16.4363492 9.1231746,16.4333333 C8.70301587,16.422381 8.31539683,16.1528571 8.17412698,15.7312698 L7.7284127,14.4004762 L6.44222222,14.8312698 C6.32492063,14.8704762 6.20571429,14.8874603 6.08888889,14.8844444 C5.66873016,14.8734921 5.28111111,14.6039683 5.13984127,14.182381 C4.95936508,13.6434921 5.25,13.0604762 5.78873016,12.88 L7.07492063,12.4493651 L6.21984127,9.89666667 L4.93380952,10.3273016 C4.81666667,10.3665079 4.69730159,10.3834921 4.58047619,10.3804762 C4.16047619,10.3695238 3.77269841,10.1 3.6315873,9.6784127 C3.45111111,9.13952381 3.7415873,8.55650794 4.28047619,8.37603175 L5.56634921,7.94539683 L5.12063492,6.61460317 C4.94015873,6.07587302 5.23063492,5.49285714 5.76952381,5.31222222 C6.3084127,5.13190476 6.89142857,5.42238095 7.07174603,5.96111111 L7.51746032,7.29190476 L10.1695238,6.40380952 L9.72380952,5.07301587 C9.54333333,4.53412698 9.83396825,3.95111111 10.3726984,3.77063492 C10.9114286,3.59015873 11.4946032,3.88079365 11.6750794,4.41952381 L12.1207937,5.75031746 L13.4068254,5.31952381 C13.945873,5.13920635 14.5287302,5.42968254 14.7092063,5.9684127 C14.8896825,6.50730159 14.5990476,7.09031746 14.0603175,7.27079365 L12.7742857,7.70142857 L13.6292063,10.2542857 L14.9153968,9.82349206 C15.4542857,9.6431746 16.0373016,9.93365079 16.217619,10.472381 C16.3980952,11.0111111 16.107619,11.5942857 15.5687302,11.7747619 L15.5687302,11.7747619 Z M19.0184127,7.34714286 C16.9722222,0.526825397 14.0166667,-1.06460317 7.19634921,0.981587302 C0.376031746,3.02777778 -1.21539683,5.98333333 0.830793651,12.8036508 C2.87698413,19.6239683 5.83253968,21.2153968 12.6528571,19.1692063 C19.4731746,17.1230159 21.0646032,14.1674603 19.0184127,7.34714286 L19.0184127,7.34714286 Z" id="Fill-11" fill="#FFFFFF" mask="url(#mask-2)"></path>
                </g>
            </g>
        </g>
    </g>
</svg>

<svg width="20" height="20" viewBox="0 0 20 20" xmlns="http://www.w3.org/2000/svg" xmlns:xlink="http://www.w3.org/1999/xlink"><defs><path id="a" d="M0 19.99h19.85V.15H0z"/></defs><g fill="none" fill-rule="evenodd"><mask id="b" fill="#fff"><use xlink:href="#a"/></mask><path fill="#FFF" mask="url(#b)" d="M8.171 9.243l.855 2.553 2.652-.888-.855-2.553-2.652.888"/><path d="M15.569 11.775l-1.286.43.445 1.331a1.029 1.029 0 1 1-1.95.654l-.446-1.331-2.652.888.445 1.33a1.029 1.029 0 0 1-1.95.654l-.447-1.33-1.286.43a1.029 1.029 0 1 1-.653-1.951l1.286-.43-.855-2.553-1.286.43a1.028 1.028 0 1 1-.654-1.951l1.286-.43-.445-1.331a1.029 1.029 0 0 1 1.95-.654l.446 1.33 2.653-.887-.446-1.331a1.029 1.029 0 0 1 1.951-.653l.446 1.33 1.286-.43a1.029 1.029 0 0 1 .653 1.95l-1.286.431.855 2.553 1.286-.43a1.029 1.029 0 0 1 .654 1.95zm3.45-4.428C16.971.527 14.016-1.065 7.195.982.376 3.028-1.215 5.983.831 12.804c2.046 6.82 5.002 8.411 11.822 6.365 6.82-2.046 8.412-5.002 6.365-11.822z" fill="#FFF" mask="url(#b)"/></g></svg>
